X:1
T:Our Country
T:Our Country
T:Philip Phillips
T:Frances Jane (Fanny) Crosby, 1868
T:Public Domain Courtesy of the Cyber Hymnal™
T:Public Domain Courtesy of the Cyber Hymnal™
C:Philip Phillips
Z:Public Domain
Z:Courtesy of the Cyber Hymnal™
%%score ( 1 2 ) ( 3 4 )
L:1/8
Q:1/4=103
M:6/8
K:C
V:1 treble 
V:2 treble 
V:3 bass 
V:4 bass 
V:1
 [EG] | [EG][CE][DF] [EG][FA][DB] | [Ec]3 [EG]2 [Gc] | [FB][FB][FB] [FB][FA][FB] | %4
w: 1.~Our|coun- try, un- ri- valed in|beau- ty And|splen- dor that can- not be|
w: 2.~Our|coun- try, the birth- place of|free- dom, The|land where our for- fa- thers|
w: 3.~Our|coun- try, the past, and its|glo- ry, Still|hon- or the names of thy|
w: 4.~Our|coun- try, with ar- dent de-|vo- tion, In|God may thy child- ren a-|
 [Ec]3- [Ec]2 [EG] | [EG][CE][DF] [EG][FA][DB] | [Ec]3 [EG]2 [Gc] | [GB][GB][GB] [^Fd][Fc][FA] | %8
w: told, * How|love- ly thy hills and thy|wood- lands, Ar-|rayed in a sun- light of|
w: trod, * And|sang in the isles of the|for- est Their|hymn of thanks- giv- ing to|
w: dead; * The|states- men that crowned thee with|lau- rel, The|he- roes and vet- ’rans that|
w: bide; * In|Him be the strength of our|na- tion, His|laws and its coun- sel our|
 G3- G2 G | [FA][FA][FA] [Ac][GB][FA] | [EG] [Ec]3 z [EG] | [Ec][Ec][Ec] [Ec][DB][Ec] | %12
w: gold. * The|ea- gle, proud king of the|mount- ain, Is|soar- ing, ma- jes- tic and|
w: God; * Their|bark they had moored in the|har- bor, No|more on the o- cean to|
w: bled. * Mount|Ver- non, where Wash- ing- ton|slum- bers, The|soul of thy free- dom for|
w: guide. * Our|ban- ner, that time- hon- ored|ban- ner, That|floats o’er the o- cean’s bright|
 [Gd]3- [Gd]2 [Gd] | [Ge][Fd][Ec] [Ac][GB][FA] | [FA]3 [EG]2 [Ec] | [DB][EB][FB] [FB][FA][FB] | %16
w: free; * Thy|riv- ers and lakes in their|grand- eur, Roll|on to the arms of the|
w: roam; * And|there in the wilds of New|Eng- land, They|found- ed a coun- try and|
w: years, * A|wil- low droops ten- der- ly|ev- er, Go|hal- low his grave with thy|
w: foam, * God|keep them un- sul- lied for-|ev- er, Our|stan- dard, our un- ion, our|
 ([Gc]3 [Fd]3 | !fermata![Ge]3) [Gc]3 | [Fd][Fd][Fd] [DB][CA][DB] | [Ec]3- [Ec]2 |] %20
w: sea; *|* Roll|on to the arms of the|sea. *|
w: home, *|* They|found- ed a coun- try and|home. *|
w: tears, *|* Go|hal- low his grave with thy|tears. *|
w: home, *|* Our|stan- dard, our un- ion, our|home. *|
V:2
 x | x6 | x6 | x6 | x6 | x6 | x6 | x6 | G3- G2 G | x6 | x6 | x6 | x6 | x6 | x6 | x6 | x6 | x6 | %18
 x6 | x5 |] %20
V:3
 [C,C] | [C,C][C,G,][C,G,] [C,C][C,C][C,G,] | [C,G,]3 [C,C]2 [E,C] | %3
 [G,D][G,D][G,D] [G,D][G,C][G,D] | [C,C]3- [C,C]2 [C,C] | [C,C][C,G,][C,G,] [C,C][C,C][C,G,] | %6
 [C,G,]3 [C,C]2 [E,C] | [G,D][G,D][G,D] [D,B,][D,A,][D,C] | [G,,G,B,]3- [G,,G,B,]2 [E,C] | %9
 [F,C][F,C][F,C] [F,C][F,C][F,C] | [C,C] [C,G,]3 z [C,G,] | [C,G,][C,G,][C,G,] A,A,A, | %12
 [G,B,]3- [G,B,]2 [G,B,] | [C,C][C,C][C,C] [F,C][F,C][F,C] | [C,C]3 [C,C]2 [C,G,] | %15
 [G,B,][G,C][G,D] [G,D][G,C][F,D] | ([E,C]3 [G,B,]3 | C3) [E,C]3 | [F,A,][F,A,][F,A,] G,G,G, | %19
 [C,G,]3- [C,G,]2 |] %20
V:4
 x | x6 | x6 | x6 | x6 | x6 | x6 | x6 | x6 | x6 | x6 | x3 A,A,A, | x6 | x6 | x6 | x6 | x6 | C3 x3 | %18
 x3 G,G,G, | x5 |] %20

